source/images/icons/icon-utility/fill.svg

<?xml version="1.0" encoding="UTF-8"?>
<svg width="24px" height="24px" viewBox="0 0 24 24" version="1.1" xmlns="http://www.w3.org/2000/svg" xmlns:xlink="http://www.w3.org/1999/xlink">
    <!-- Generator: Sketch 55.2 (78181) - https://sketchapp.com -->
    <title>Icons/24px/Fill</title>
    <desc>Created with Sketch.</desc>
    <g id="Icons/24px/Fill" stroke="none" stroke-width="1" fill="none" fill-rule="evenodd">
        <path d="M16,8.41421356 L9,15.4142136 L9,18 L11.5857864,18 L18.5857864,11 L16,8.41421356 Z M17.4142136,7 L20,9.58578644 L21.5857864,8 L19,5.41421356 L17.4142136,7 Z M12.7071068,19.7071068 C12.5195704,19.8946432 12.2652165,20 12,20 L8,20 C7.44771525,20 7,19.5522847 7,19 L7,15 C7,14.7347835 7.10535684,14.4804296 7.29289322,14.2928932 L18.2928932,3.29289322 C18.6834175,2.90236893 19.3165825,2.90236893 19.7071068,3.29289322 L23.7071068,7.29289322 C24.0976311,7.68341751 24.0976311,8.31658249 23.7071068,8.70710678 L12.7071068,19.7071068 Z M16,0 C16.5522847,0 17,0.44771525 17,1 C17,1.55228475 16.5522847,2 16,2 L6,2 C5.44771525,2 5,2.44771525 5,3 L5,21 C5,21.5522847 5.44771525,22 6,22 L18,22 C18.5522847,22 19,21.5522847 19,21 L19,17 C19,16.4477153 19.4477153,16 20,16 C20.5522847,16 21,16.4477153 21,17 L21,21 C21,22.6568542 19.6568542,24 18,24 L6,24 C4.34314575,24 3,22.6568542 3,21 L3,3 C3,1.34314575 4.34314575,0 6,0 L16,0 Z" id="Icon" fill="#ADB5BD"></path>
    </g>
</svg>

<svg width="24" height="24">
    <title>
        Icons/24px/Fill
    </title>
    <path d="M16 8.414l-7 7V18h2.586l7-7L16 8.414zM17.414 7L20 9.586 21.586 8 19 5.414 17.414 7zm-4.707 12.707A1 1 0 0 1 12 20H8a1 1 0 0 1-1-1v-4a1 1 0 0 1 .293-.707l11-11a1 1 0 0 1 1.414 0l4 4a1 1 0 0 1 0 1.414l-11 11zM16 0a1 1 0 0 1 0 2H6a1 1 0 0 0-1 1v18a1 1 0 0 0 1 1h12a1 1 0 0 0 1-1v-4a1 1 0 0 1 2 0v4a3 3 0 0 1-3 3H6a3 3 0 0 1-3-3V3a3 3 0 0 1 3-3h10z" fill="#ADB5BD" fill-rule="evenodd"/>
</svg>
